layout/main/dist/assets/main/img/services/e-commerce.svg

<svg width="100" height="100" viewBox="0 0 100 100" fill="none" xmlns="http://www.w3.org/2000/svg">
<g opacity="0.6">
<path d="M97.4375 38.2812V33.5938C97.4375 32.3505 96.9436 31.1583 96.0646 30.2792C95.1855 29.4001 93.9932 28.9063 92.75 28.9062H24C22.7568 28.9063 21.5645 29.4001 20.6854 30.2792C19.8064 31.1583 19.3125 32.3505 19.3125 33.5938V38.2812H97.4375Z" fill="#009FFF"/>
<path d="M19.3125 41.4062V92.9688C19.3125 94.212 19.8064 95.4042 20.6854 96.2833C21.5645 97.1624 22.7568 97.6562 24 97.6562H92.75C93.9932 97.6562 95.1855 97.1624 96.0646 96.2833C96.9436 95.4042 97.4375 94.212 97.4375 92.9688V41.4062H19.3125ZM42.75 91.4062C42.75 91.8207 42.5854 92.2181 42.2924 92.5111C41.9993 92.8041 41.6019 92.9688 41.1875 92.9688H25.5625C25.1481 92.9688 24.7507 92.8041 24.4576 92.5111C24.1646 92.2181 24 91.8207 24 91.4062V75.7812C24 75.3668 24.1646 74.9694 24.4576 74.6764C24.7507 74.3834 25.1481 74.2188 25.5625 74.2188H41.1875C41.6019 74.2188 41.9993 74.3834 42.2924 74.6764C42.5854 74.9694 42.75 75.3668 42.75 75.7812V91.4062ZM42.75 69.5312C42.75 69.9457 42.5854 70.3431 42.2924 70.6361C41.9993 70.9291 41.6019 71.0938 41.1875 71.0938H25.5625C25.1481 71.0938 24.7507 70.9291 24.4576 70.6361C24.1646 70.3431 24 69.9457 24 69.5312V53.9062C24 53.4918 24.1646 53.0944 24.4576 52.8014C24.7507 52.5084 25.1481 52.3438 25.5625 52.3438H41.1875C41.6019 52.3438 41.9993 52.5084 42.2924 52.8014C42.5854 53.0944 42.75 53.4918 42.75 53.9062V69.5312ZM41.1875 49.2188H25.5625C25.1481 49.2188 24.7507 49.0541 24.4576 48.7611C24.1646 48.4681 24 48.0707 24 47.6562C24 47.2418 24.1646 46.8444 24.4576 46.5514C24.7507 46.2584 25.1481 46.0938 25.5625 46.0938H41.1875C41.6019 46.0938 41.9993 46.2584 42.2924 46.5514C42.5854 46.8444 42.75 47.2418 42.75 47.6562C42.75 48.0707 42.5854 48.4681 42.2924 48.7611C41.9993 49.0541 41.6019 49.2188 41.1875 49.2188ZM67.75 92.9688H49C48.5856 92.9688 48.1882 92.8041 47.8951 92.5111C47.6021 92.2181 47.4375 91.8207 47.4375 91.4062C47.4375 90.9918 47.6021 90.5944 47.8951 90.3014C48.1882 90.0084 48.5856 89.8438 49 89.8438H67.75C68.1644 89.8438 68.5618 90.0084 68.8549 90.3014C69.1479 90.5944 69.3125 90.9918 69.3125 91.4062C69.3125 91.8207 69.1479 92.2181 68.8549 92.5111C68.5618 92.8041 68.1644 92.9688 67.75 92.9688ZM67.75 86.7188H49C48.5856 86.7188 48.1882 86.5541 47.8951 86.2611C47.6021 85.9681 47.4375 85.5707 47.4375 85.1562C47.4375 84.7418 47.6021 84.3444 47.8951 84.0514C48.1882 83.7584 48.5856 83.5938 49 83.5938H67.75C68.1644 83.5938 68.5618 83.7584 68.8549 84.0514C69.1479 84.3444 69.3125 84.7418 69.3125 85.1562C69.3125 85.5707 69.1479 85.9681 68.8549 86.2611C68.5618 86.5541 68.1644 86.7188 67.75 86.7188ZM69.3125 78.9062C69.3125 79.3207 69.1479 79.7181 68.8549 80.0111C68.5618 80.3041 68.1644 80.4688 67.75 80.4688H49C48.5856 80.4688 48.1882 80.3041 47.8951 80.0111C47.6021 79.7181 47.4375 79.3207 47.4375 78.9062V47.6562C47.4375 47.2418 47.6021 46.8444 47.8951 46.5514C48.1882 46.2584 48.5856 46.0938 49 46.0938H67.75C68.1644 46.0938 68.5618 46.2584 68.8549 46.5514C69.1479 46.8444 69.3125 47.2418 69.3125 47.6562V78.9062ZM92.75 91.4062C92.75 91.8207 92.5854 92.2181 92.2924 92.5111C91.9993 92.8041 91.6019 92.9688 91.1875 92.9688H75.5625C75.1481 92.9688 74.7507 92.8041 74.4576 92.5111C74.1646 92.2181 74 91.8207 74 91.4062V75.7812C74 75.3668 74.1646 74.9694 74.4576 74.6764C74.7507 74.3834 75.1481 74.2188 75.5625 74.2188H91.1875C91.6019 74.2188 91.9993 74.3834 92.2924 74.6764C92.5854 74.9694 92.75 75.3668 92.75 75.7812V91.4062ZM92.75 69.5312C92.75 69.9457 92.5854 70.3431 92.2924 70.6361C91.9993 70.9291 91.6019 71.0938 91.1875 71.0938H75.5625C75.1481 71.0938 74.7507 70.9291 74.4576 70.6361C74.1646 70.3431 74 69.9457 74 69.5312V53.9062C74 53.4918 74.1646 53.0944 74.4576 52.8014C74.7507 52.5084 75.1481 52.3438 75.5625 52.3438H91.1875C91.6019 52.3438 91.9993 52.5084 92.2924 52.8014C92.5854 53.0944 92.75 53.4918 92.75 53.9062V69.5312ZM91.1875 49.2188H77.125C76.7106 49.2188 76.3132 49.0541 76.0201 48.7611C75.7271 48.4681 75.5625 48.0707 75.5625 47.6562C75.5625 47.2418 75.7271 46.8444 76.0201 46.5514C76.3132 46.2584 76.7106 46.0938 77.125 46.0938H91.1875C91.6019 46.0938 91.9993 46.2584 92.2924 46.5514C92.5854 46.8444 92.75 47.2418 92.75 47.6562C92.75 48.0707 92.5854 48.4681 92.2924 48.7611C91.9993 49.0541 91.6019 49.2188 91.1875 49.2188Z" fill="#C4A2FC"/>
<path d="M19.3125 41.4062V92.9688C19.3125 94.212 19.8064 95.4042 20.6854 96.2833C21.5645 97.1624 22.7568 97.6562 24 97.6562H92.75C93.9932 97.6562 95.1855 97.1624 96.0646 96.2833C96.9436 95.4042 97.4375 94.212 97.4375 92.9688V41.4062H19.3125ZM42.75 91.4062C42.75 91.8207 42.5854 92.2181 42.2924 92.5111C41.9993 92.8041 41.6019 92.9688 41.1875 92.9688H25.5625C25.1481 92.9688 24.7507 92.8041 24.4576 92.5111C24.1646 92.2181 24 91.8207 24 91.4062V75.7812C24 75.3668 24.1646 74.9694 24.4576 74.6764C24.7507 74.3834 25.1481 74.2188 25.5625 74.2188H41.1875C41.6019 74.2188 41.9993 74.3834 42.2924 74.6764C42.5854 74.9694 42.75 75.3668 42.75 75.7812V91.4062ZM42.75 69.5312C42.75 69.9457 42.5854 70.3431 42.2924 70.6361C41.9993 70.9291 41.6019 71.0938 41.1875 71.0938H25.5625C25.1481 71.0938 24.7507 70.9291 24.4576 70.6361C24.1646 70.3431 24 69.9457 24 69.5312V53.9062C24 53.4918 24.1646 53.0944 24.4576 52.8014C24.7507 52.5084 25.1481 52.3438 25.5625 52.3438H41.1875C41.6019 52.3438 41.9993 52.5084 42.2924 52.8014C42.5854 53.0944 42.75 53.4918 42.75 53.9062V69.5312ZM41.1875 49.2188H25.5625C25.1481 49.2188 24.7507 49.0541 24.4576 48.7611C24.1646 48.4681 24 48.0707 24 47.6562C24 47.2418 24.1646 46.8444 24.4576 46.5514C24.7507 46.2584 25.1481 46.0938 25.5625 46.0938H41.1875C41.6019 46.0938 41.9993 46.2584 42.2924 46.5514C42.5854 46.8444 42.75 47.2418 42.75 47.6562C42.75 48.0707 42.5854 48.4681 42.2924 48.7611C41.9993 49.0541 41.6019 49.2188 41.1875 49.2188ZM67.75 92.9688H49C48.5856 92.9688 48.1882 92.8041 47.8951 92.5111C47.6021 92.2181 47.4375 91.8207 47.4375 91.4062C47.4375 90.9918 47.6021 90.5944 47.8951 90.3014C48.1882 90.0084 48.5856 89.8438 49 89.8438H67.75C68.1644 89.8438 68.5618 90.0084 68.8549 90.3014C69.1479 90.5944 69.3125 90.9918 69.3125 91.4062C69.3125 91.8207 69.1479 92.2181 68.8549 92.5111C68.5618 92.8041 68.1644 92.9688 67.75 92.9688ZM67.75 86.7188H49C48.5856 86.7188 48.1882 86.5541 47.8951 86.2611C47.6021 85.9681 47.4375 85.5707 47.4375 85.1562C47.4375 84.7418 47.6021 84.3444 47.8951 84.0514C48.1882 83.7584 48.5856 83.5938 49 83.5938H67.75C68.1644 83.5938 68.5618 83.7584 68.8549 84.0514C69.1479 84.3444 69.3125 84.7418 69.3125 85.1562C69.3125 85.5707 69.1479 85.9681 68.8549 86.2611C68.5618 86.5541 68.1644 86.7188 67.75 86.7188ZM69.3125 78.9062C69.3125 79.3207 69.1479 79.7181 68.8549 80.0111C68.5618 80.3041 68.1644 80.4688 67.75 80.4688H49C48.5856 80.4688 48.1882 80.3041 47.8951 80.0111C47.6021 79.7181 47.4375 79.3207 47.4375 78.9062V47.6562C47.4375 47.2418 47.6021 46.8444 47.8951 46.5514C48.1882 46.2584 48.5856 46.0938 49 46.0938H67.75C68.1644 46.0938 68.5618 46.2584 68.8549 46.5514C69.1479 46.8444 69.3125 47.2418 69.3125 47.6562V78.9062ZM92.75 91.4062C92.75 91.8207 92.5854 92.2181 92.2924 92.5111C91.9993 92.8041 91.6019 92.9688 91.1875 92.9688H75.5625C75.1481 92.9688 74.7507 92.8041 74.4576 92.5111C74.1646 92.2181 74 91.8207 74 91.4062V75.7812C74 75.3668 74.1646 74.9694 74.4576 74.6764C74.7507 74.3834 75.1481 74.2188 75.5625 74.2188H91.1875C91.6019 74.2188 91.9993 74.3834 92.2924 74.6764C92.5854 74.9694 92.75 75.3668 92.75 75.7812V91.4062ZM92.75 69.5312C92.75 69.9457 92.5854 70.3431 92.2924 70.6361C91.9993 70.9291 91.6019 71.0938 91.1875 71.0938H75.5625C75.1481 71.0938 74.7507 70.9291 74.4576 70.6361C74.1646 70.3431 74 69.9457 74 69.5312V53.9062C74 53.4918 74.1646 53.0944 74.4576 52.8014C74.7507 52.5084 75.1481 52.3438 75.5625 52.3438H91.1875C91.6019 52.3438 91.9993 52.5084 92.2924 52.8014C92.5854 53.0944 92.75 53.4918 92.75 53.9062V69.5312ZM91.1875 49.2188H77.125C76.7106 49.2188 76.3132 49.0541 76.0201 48.7611C75.7271 48.4681 75.5625 48.0707 75.5625 47.6562C75.5625 47.2418 75.7271 46.8444 76.0201 46.5514C76.3132 46.2584 76.7106 46.0938 77.125 46.0938H91.1875C91.6019 46.0938 91.9993 46.2584 92.2924 46.5514C92.5854 46.8444 92.75 47.2418 92.75 47.6562C92.75 48.0707 92.5854 48.4681 92.2924 48.7611C91.9993 49.0541 91.6019 49.2188 91.1875 49.2188Z" fill="url(#paint0_linear)"/>
<path d="M19.3125 41.4062V92.9688C19.3125 94.212 19.8064 95.4042 20.6854 96.2833C21.5645 97.1624 22.7568 97.6562 24 97.6562H92.75C93.9932 97.6562 95.1855 97.1624 96.0646 96.2833C96.9436 95.4042 97.4375 94.212 97.4375 92.9688V41.4062H19.3125ZM42.75 91.4062C42.75 91.8207 42.5854 92.2181 42.2924 92.5111C41.9993 92.8041 41.6019 92.9688 41.1875 92.9688H25.5625C25.1481 92.9688 24.7507 92.8041 24.4576 92.5111C24.1646 92.2181 24 91.8207 24 91.4062V75.7812C24 75.3668 24.1646 74.9694 24.4576 74.6764C24.7507 74.3834 25.1481 74.2188 25.5625 74.2188H41.1875C41.6019 74.2188 41.9993 74.3834 42.2924 74.6764C42.5854 74.9694 42.75 75.3668 42.75 75.7812V91.4062ZM42.75 69.5312C42.75 69.9457 42.5854 70.3431 42.2924 70.6361C41.9993 70.9291 41.6019 71.0938 41.1875 71.0938H25.5625C25.1481 71.0938 24.7507 70.9291 24.4576 70.6361C24.1646 70.3431 24 69.9457 24 69.5312V53.9062C24 53.4918 24.1646 53.0944 24.4576 52.8014C24.7507 52.5084 25.1481 52.3438 25.5625 52.3438H41.1875C41.6019 52.3438 41.9993 52.5084 42.2924 52.8014C42.5854 53.0944 42.75 53.4918 42.75 53.9062V69.5312ZM41.1875 49.2188H25.5625C25.1481 49.2188 24.7507 49.0541 24.4576 48.7611C24.1646 48.4681 24 48.0707 24 47.6562C24 47.2418 24.1646 46.8444 24.4576 46.5514C24.7507 46.2584 25.1481 46.0938 25.5625 46.0938H41.1875C41.6019 46.0938 41.9993 46.2584 42.2924 46.5514C42.5854 46.8444 42.75 47.2418 42.75 47.6562C42.75 48.0707 42.5854 48.4681 42.2924 48.7611C41.9993 49.0541 41.6019 49.2188 41.1875 49.2188ZM67.75 92.9688H49C48.5856 92.9688 48.1882 92.8041 47.8951 92.5111C47.6021 92.2181 47.4375 91.8207 47.4375 91.4062C47.4375 90.9918 47.6021 90.5944 47.8951 90.3014C48.1882 90.0084 48.5856 89.8438 49 89.8438H67.75C68.1644 89.8438 68.5618 90.0084 68.8549 90.3014C69.1479 90.5944 69.3125 90.9918 69.3125 91.4062C69.3125 91.8207 69.1479 92.2181 68.8549 92.5111C68.5618 92.8041 68.1644 92.9688 67.75 92.9688ZM67.75 86.7188H49C48.5856 86.7188 48.1882 86.5541 47.8951 86.2611C47.6021 85.9681 47.4375 85.5707 47.4375 85.1562C47.4375 84.7418 47.6021 84.3444 47.8951 84.0514C48.1882 83.7584 48.5856 83.5938 49 83.5938H67.75C68.1644 83.5938 68.5618 83.7584 68.8549 84.0514C69.1479 84.3444 69.3125 84.7418 69.3125 85.1562C69.3125 85.5707 69.1479 85.9681 68.8549 86.2611C68.5618 86.5541 68.1644 86.7188 67.75 86.7188ZM69.3125 78.9062C69.3125 79.3207 69.1479 79.7181 68.8549 80.0111C68.5618 80.3041 68.1644 80.4688 67.75 80.4688H49C48.5856 80.4688 48.1882 80.3041 47.8951 80.0111C47.6021 79.7181 47.4375 79.3207 47.4375 78.9062V47.6562C47.4375 47.2418 47.6021 46.8444 47.8951 46.5514C48.1882 46.2584 48.5856 46.0938 49 46.0938H67.75C68.1644 46.0938 68.5618 46.2584 68.8549 46.5514C69.1479 46.8444 69.3125 47.2418 69.3125 47.6562V78.9062ZM92.75 91.4062C92.75 91.8207 92.5854 92.2181 92.2924 92.5111C91.9993 92.8041 91.6019 92.9688 91.1875 92.9688H75.5625C75.1481 92.9688 74.7507 92.8041 74.4576 92.5111C74.1646 92.2181 74 91.8207 74 91.4062V75.7812C74 75.3668 74.1646 74.9694 74.4576 74.6764C74.7507 74.3834 75.1481 74.2188 75.5625 74.2188H91.1875C91.6019 74.2188 91.9993 74.3834 92.2924 74.6764C92.5854 74.9694 92.75 75.3668 92.75 75.7812V91.4062ZM92.75 69.5312C92.75 69.9457 92.5854 70.3431 92.2924 70.6361C91.9993 70.9291 91.6019 71.0938 91.1875 71.0938H75.5625C75.1481 71.0938 74.7507 70.9291 74.4576 70.6361C74.1646 70.3431 74 69.9457 74 69.5312V53.9062C74 53.4918 74.1646 53.0944 74.4576 52.8014C74.7507 52.5084 75.1481 52.3438 75.5625 52.3438H91.1875C91.6019 52.3438 91.9993 52.5084 92.2924 52.8014C92.5854 53.0944 92.75 53.4918 92.75 53.9062V69.5312ZM91.1875 49.2188H77.125C76.7106 49.2188 76.3132 49.0541 76.0201 48.7611C75.7271 48.4681 75.5625 48.0707 75.5625 47.6562C75.5625 47.2418 75.7271 46.8444 76.0201 46.5514C76.3132 46.2584 76.7106 46.0938 77.125 46.0938H91.1875C91.6019 46.0938 91.9993 46.2584 92.2924 46.5514C92.5854 46.8444 92.75 47.2418 92.75 47.6562C92.75 48.0707 92.5854 48.4681 92.2924 48.7611C91.9993 49.0541 91.6019 49.2188 91.1875 49.2188Z" fill="url(#paint1_linear)"/>
</g>
<path d="M24.9215 61.2214C20.4169 61.2214 16.7654 64.8731 16.7654 69.3775C16.7654 73.8821 20.4171 77.5337 24.9215 77.5337C29.4261 77.5337 33.0776 73.882 33.0776 69.3775C33.0778 64.8731 29.4261 61.2214 24.9215 61.2214ZM24.9215 73.9089C22.419 73.9089 20.3904 71.8802 20.3904 69.3777C20.3904 66.8752 22.419 64.8466 24.9215 64.8466C27.424 64.8466 29.4526 66.8752 29.4526 69.3777C29.4528 71.8802 27.424 73.9089 24.9215 73.9089Z" fill="white"/>
<path d="M59.3587 61.2214C54.8542 61.2214 51.2026 64.8731 51.2026 69.3775C51.2026 73.8821 54.8543 77.5337 59.3587 77.5337C63.8632 77.5337 67.5149 73.882 67.5149 69.3775C67.5149 64.8731 63.8633 61.2214 59.3587 61.2214ZM59.3587 73.9089C56.8562 73.9089 54.8276 71.8802 54.8276 69.3777C54.8276 66.8752 56.8562 64.8466 59.3587 64.8466C61.8613 64.8466 63.8899 66.8752 63.8899 69.3777C63.89 71.8802 61.8613 73.9089 59.3587 73.9089Z" fill="white"/>
<path d="M77.7555 13.6438C77.3781 13.2315 76.8617 12.9734 76.3056 12.9187L17.3093 12.1031L15.678 7.11873C14.5289 3.78673 11.4087 1.53729 7.88429 1.5H1.81249C0.811448 1.5 0 2.31145 0 3.31249C0 4.31353 0.811448 5.12498 1.81249 5.12498H7.88429C9.85498 5.16851 11.5903 6.43391 12.2343 8.29687L23.7436 43.0059L22.8375 45.0902C21.8267 47.6967 22.1303 50.6302 23.6531 52.9745C25.1613 55.2771 27.6987 56.698 30.4499 56.7808H65.7028C66.7038 56.7808 67.5153 55.9693 67.5153 54.9683C67.5153 53.9673 66.7038 53.1558 65.7028 53.1558H30.4498C28.8961 53.117 27.4659 52.2996 26.6435 50.9808C25.8303 49.6781 25.6633 48.0732 26.1904 46.6308L26.9155 44.9995L65.0683 41.012C69.2591 40.5504 72.7064 37.5024 73.6777 33.3995L78.0277 15.1841C78.2237 14.6596 78.1196 14.0696 77.7555 13.6438ZM70.1432 32.5841C69.5548 35.2252 67.3125 37.1733 64.6152 37.3872L26.9155 41.284L18.4874 15.7281L74.04 16.5437L70.1432 32.5841Z" fill="white"/>
<defs>
<linearGradient id="paint0_linear" x1="58.375" y1="41.4062" x2="58.375" y2="97.6562" gradientUnits="userSpaceOnUse">
<stop stop-color="white"/>
<stop offset="1" stop-color="white" stop-opacity="0"/>
</linearGradient>
<linearGradient id="paint1_linear" x1="58.375" y1="41.4062" x2="58.375" y2="97.6562" gradientUnits="userSpaceOnUse">
<stop stop-color="#009FFF"/>
<stop offset="0.71875" stop-color="#FC466B"/>
</linearGradient>
</defs>
</svg>

<svg width="100" height="100" viewBox="0 0 100 100" fill="none" xmlns="http://www.w3.org/2000/svg"><g opacity=".6"><path d="M97.438 38.281v-4.687a4.688 4.688 0 00-4.688-4.688H24a4.688 4.688 0 00-4.688 4.688v4.687h78.126z" fill="#009FFF"/><path d="M19.313 41.406V92.97A4.688 4.688 0 0024 97.656h68.75a4.687 4.687 0 004.688-4.687V41.406H19.311zm23.437 50a1.562 1.562 0 01-1.563 1.563H25.563A1.563 1.563 0 0124 91.406V75.781a1.562 1.562 0 011.563-1.562h15.625a1.563 1.563 0 011.562 1.562v15.625zm0-21.875a1.562 1.562 0 01-1.563 1.563H25.563A1.563 1.563 0 0124 69.53V53.906a1.562 1.562 0 011.563-1.562h15.625a1.563 1.563 0 011.562 1.562v15.625zM41.187 49.22H25.563a1.563 1.563 0 010-3.125h15.625a1.563 1.563 0 010 3.125zM67.75 92.97H49a1.563 1.563 0 010-3.125h18.75a1.563 1.563 0 010 3.125zm0-6.25H49a1.563 1.563 0 010-3.125h18.75a1.563 1.563 0 010 3.125zm1.563-7.813a1.562 1.562 0 01-1.563 1.563H49a1.563 1.563 0 01-1.563-1.563v-31.25A1.562 1.562 0 0149 46.094h18.75a1.563 1.563 0 011.563 1.562v31.25zm23.437 12.5a1.562 1.562 0 01-1.563 1.563H75.564A1.563 1.563 0 0174 91.406V75.781a1.562 1.562 0 011.563-1.562h15.624a1.563 1.563 0 011.563 1.562v15.625zm0-21.875a1.562 1.562 0 01-1.563 1.563H75.564A1.563 1.563 0 0174 69.53V53.906a1.562 1.562 0 011.563-1.562h15.624a1.563 1.563 0 011.563 1.562v15.625zM91.187 49.22H77.126a1.563 1.563 0 010-3.125h14.063a1.563 1.563 0 010 3.125z" fill="#C4A2FC"/><path d="M19.313 41.406V92.97A4.688 4.688 0 0024 97.656h68.75a4.687 4.687 0 004.688-4.687V41.406H19.311zm23.437 50a1.562 1.562 0 01-1.563 1.563H25.563A1.563 1.563 0 0124 91.406V75.781a1.562 1.562 0 011.563-1.562h15.625a1.563 1.563 0 011.562 1.562v15.625zm0-21.875a1.562 1.562 0 01-1.563 1.563H25.563A1.563 1.563 0 0124 69.53V53.906a1.562 1.562 0 011.563-1.562h15.625a1.563 1.563 0 011.562 1.562v15.625zM41.187 49.22H25.563a1.563 1.563 0 010-3.125h15.625a1.563 1.563 0 010 3.125zM67.75 92.97H49a1.563 1.563 0 010-3.125h18.75a1.563 1.563 0 010 3.125zm0-6.25H49a1.563 1.563 0 010-3.125h18.75a1.563 1.563 0 010 3.125zm1.563-7.813a1.562 1.562 0 01-1.563 1.563H49a1.563 1.563 0 01-1.563-1.563v-31.25A1.562 1.562 0 0149 46.094h18.75a1.563 1.563 0 011.563 1.562v31.25zm23.437 12.5a1.562 1.562 0 01-1.563 1.563H75.564A1.563 1.563 0 0174 91.406V75.781a1.562 1.562 0 011.563-1.562h15.624a1.563 1.563 0 011.563 1.562v15.625zm0-21.875a1.562 1.562 0 01-1.563 1.563H75.564A1.563 1.563 0 0174 69.53V53.906a1.562 1.562 0 011.563-1.562h15.624a1.563 1.563 0 011.563 1.562v15.625zM91.187 49.22H77.126a1.563 1.563 0 010-3.125h14.063a1.563 1.563 0 010 3.125z" fill="url(#paint0_linear)"/><path d="M19.313 41.406V92.97A4.688 4.688 0 0024 97.656h68.75a4.687 4.687 0 004.688-4.687V41.406H19.311zm23.437 50a1.562 1.562 0 01-1.563 1.563H25.563A1.563 1.563 0 0124 91.406V75.781a1.562 1.562 0 011.563-1.562h15.625a1.563 1.563 0 011.562 1.562v15.625zm0-21.875a1.562 1.562 0 01-1.563 1.563H25.563A1.563 1.563 0 0124 69.53V53.906a1.562 1.562 0 011.563-1.562h15.625a1.563 1.563 0 011.562 1.562v15.625zM41.187 49.22H25.563a1.563 1.563 0 010-3.125h15.625a1.563 1.563 0 010 3.125zM67.75 92.97H49a1.563 1.563 0 010-3.125h18.75a1.563 1.563 0 010 3.125zm0-6.25H49a1.563 1.563 0 010-3.125h18.75a1.563 1.563 0 010 3.125zm1.563-7.813a1.562 1.562 0 01-1.563 1.563H49a1.563 1.563 0 01-1.563-1.563v-31.25A1.562 1.562 0 0149 46.094h18.75a1.563 1.563 0 011.563 1.562v31.25zm23.437 12.5a1.562 1.562 0 01-1.563 1.563H75.564A1.563 1.563 0 0174 91.406V75.781a1.562 1.562 0 011.563-1.562h15.624a1.563 1.563 0 011.563 1.562v15.625zm0-21.875a1.562 1.562 0 01-1.563 1.563H75.564A1.563 1.563 0 0174 69.53V53.906a1.562 1.562 0 011.563-1.562h15.624a1.563 1.563 0 011.563 1.562v15.625zM91.187 49.22H77.126a1.563 1.563 0 010-3.125h14.063a1.563 1.563 0 010 3.125z" fill="url(#paint1_linear)"/></g><path d="M24.922 61.221a8.156 8.156 0 100 16.313 8.156 8.156 0 000-16.313zm0 12.688a4.531 4.531 0 110-9.062 4.531 4.531 0 010 9.062zm34.437-12.688a8.156 8.156 0 100 16.313 8.156 8.156 0 000-16.313zm0 12.688a4.531 4.531 0 110-9.062 4.531 4.531 0 010 9.062zm18.396-60.265a2.266 2.266 0 00-1.45-.725l-58.996-.816-1.631-4.984A8.337 8.337 0 007.884 1.5H1.812a1.812 1.812 0 100 3.625h6.072a4.713 4.713 0 014.35 3.172l11.51 34.709-.907 2.084a8.7 8.7 0 00.816 7.884 8.428 8.428 0 006.797 3.807h35.253a1.813 1.813 0 000-3.625H30.45a4.622 4.622 0 01-3.806-2.175 4.984 4.984 0 01-.454-4.35l.726-1.632 38.152-3.987a9.969 9.969 0 008.61-7.612l4.35-18.216a1.54 1.54 0 00-.273-1.54zm-7.612 18.94a6.162 6.162 0 01-5.528 4.803l-37.7 3.897-8.428-25.556 55.553.816-3.897 16.04z" fill="#fff"/><defs><linearGradient id="paint0_linear" x1="58.375" y1="41.406" x2="58.375" y2="97.656" gradientUnits="userSpaceOnUse"><stop stop-color="#fff"/><stop offset="1" stop-color="#fff" stop-opacity="0"/></linearGradient><linearGradient id="paint1_linear" x1="58.375" y1="41.406" x2="58.375" y2="97.656" gradientUnits="userSpaceOnUse"><stop stop-color="#009FFF"/><stop offset=".719" stop-color="#FC466B"/></linearGradient></defs></svg>
